assets/1. Faces/Grinning squinting face/Color/grinning_squinting_face_color.svg

<svg width="100%" height="100%" viewBox="0 0 32 32" fill="none" xmlns="http://www.w3.org/2000/svg">
<path d="M15.9989 29.9978C25.3333 29.9978 29.9978 23.7303 29.9978 15.9989C29.9978 8.26751 25.3333 2 15.9989 2C6.66443 2 2 8.26751 2 15.9989C2 23.7303 6.66443 29.9978 15.9989 29.9978Z" fill="url(#paint0_radial_23_362)"/>
<path d="M15.9989 29.9978C25.3333 29.9978 29.9978 23.7303 29.9978 15.9989C29.9978 8.26751 25.3333 2 15.9989 2C6.66443 2 2 8.26751 2 15.9989C2 23.7303 6.66443 29.9978 15.9989 29.9978Z" fill="url(#paint1_radial_23_362)"/>
<path d="M15.9989 29.9978C25.3333 29.9978 29.9978 23.7303 29.9978 15.9989C29.9978 8.26751 25.3333 2 15.9989 2C6.66443 2 2 8.26751 2 15.9989C2 23.7303 6.66443 29.9978 15.9989 29.9978Z" fill="url(#paint2_radial_23_362)"/>
<path d="M15.9989 29.9978C25.3333 29.9978 29.9978 23.7303 29.9978 15.9989C29.9978 8.26751 25.3333 2 15.9989 2C6.66443 2 2 8.26751 2 15.9989C2 23.7303 6.66443 29.9978 15.9989 29.9978Z" fill="url(#paint3_radial_23_362)" fill-opacity="0.6"/>
<path d="M15.9989 29.9978C25.3333 29.9978 29.9978 23.7303 29.9978 15.9989C29.9978 8.26751 25.3333 2 15.9989 2C6.66443 2 2 8.26751 2 15.9989C2 23.7303 6.66443 29.9978 15.9989 29.9978Z" fill="url(#paint4_radial_23_362)"/>
<path d="M15.9989 29.9978C25.3333 29.9978 29.9978 23.7303 29.9978 15.9989C29.9978 8.26751 25.3333 2 15.9989 2C6.66443 2 2 8.26751 2 15.9989C2 23.7303 6.66443 29.9978 15.9989 29.9978Z" fill="url(#paint5_radial_23_362)"/>
<path d="M15.9989 29.9978C25.3333 29.9978 29.9978 23.7303 29.9978 15.9989C29.9978 8.26751 25.3333 2 15.9989 2C6.66443 2 2 8.26751 2 15.9989C2 23.7303 6.66443 29.9978 15.9989 29.9978Z" fill="url(#paint6_radial_23_362)"/>
<path d="M15.9989 29.9978C25.3333 29.9978 29.9978 23.7303 29.9978 15.9989C29.9978 8.26751 25.3333 2 15.9989 2C6.66443 2 2 8.26751 2 15.9989C2 23.7303 6.66443 29.9978 15.9989 29.9978Z" fill="url(#paint7_radial_23_362)"/>
<path d="M16 26C6 26 6 16 6 16H26C26 16 26 26 16 26Z" fill="url(#paint8_radial_23_362)"/>
<path d="M23.5 17.5H8.5C7.67157 17.5 7 16.8284 7 16H25C25 16.8284 24.3284 17.5 23.5 17.5Z" fill="url(#paint9_linear_23_362)"/>
<g filter="url(#filter0_f_23_362)">
<path d="M9.44746 14.3275C8.95348 14.5745 8.35281 14.3743 8.10582 13.8803C7.85883 13.3863 8.05906 12.7856 8.55303 12.5387L10.7595 11.4354H14.0002C13.9994 11.8133 13.7856 12.1585 13.4475 12.3275L9.44746 14.3275Z" fill="url(#paint10_radial_23_362)" fill-opacity="0.6" style="mix-blend-mode:multiply"/>
<path d="M9.44746 8.54329C8.95348 8.2963 8.35281 8.49653 8.10582 8.99051C7.85883 9.48448 8.05906 10.0852 8.55303 10.3321L10.7595 11.4354H14.0002C13.9994 11.0575 13.7856 10.7123 13.4475 10.5433L9.44746 8.54329Z" fill="url(#paint11_radial_23_362)" fill-opacity="0.6" style="mix-blend-mode:multiply"/>
</g>
<path d="M9.44746 13.8899C8.95348 14.1369 8.35281 13.9367 8.10582 13.4427C7.85883 12.9487 8.05906 12.3481 8.55303 12.1011L10.7595 10.9978H14.0002C13.9994 11.3757 13.7856 11.7209 13.4475 11.8899L9.44746 13.8899Z" fill="url(#paint12_linear_23_362)"/>
<path d="M9.44746 8.10579C8.95348 7.8588 8.35281 8.05903 8.10582 8.55301C7.85883 9.04698 8.05906 9.64766 8.55303 9.89465L10.7595 10.9979H14.0002C13.9994 10.62 13.7856 10.2748 13.4475 10.1058L9.44746 8.10579Z" fill="url(#paint13_linear_23_362)"/>
<g filter="url(#filter1_f_23_362)">
<path d="M21.959 14.3275C22.453 14.5745 23.0537 14.3743 23.3007 13.8803C23.5477 13.3863 23.3474 12.7856 22.8535 12.5387L20.647 11.4354H17.4062C17.4071 11.8133 17.6209 12.1585 17.959 12.3275L21.959 14.3275Z" fill="url(#paint14_radial_23_362)"/>
<path d="M21.959 8.54329C22.453 8.2963 23.0537 8.49653 23.3007 8.99051C23.5477 9.48448 23.3474 10.0852 22.8535 10.3321L20.647 11.4354H17.4062C17.4071 11.0575 17.6209 10.7123 17.959 10.5433L21.959 8.54329Z" fill="url(#paint15_radial_23_362)"/>
</g>
<path d="M22.5372 13.8899C23.0311 14.1369 23.6318 13.9367 23.8788 13.4427C24.1258 12.9487 23.9256 12.3481 23.4316 12.1011L21.2251 10.9978H17.9844C17.9852 11.3757 18.1991 11.7209 18.5372 11.8899L22.5372 13.8899Z" fill="url(#paint16_linear_23_362)"/>
<path d="M22.5372 8.10579C23.0311 7.8588 23.6318 8.05903 23.8788 8.55301C24.1258 9.04698 23.9256 9.64766 23.4316 9.89465L21.2251 10.9979H17.9844C17.9852 10.62 18.1991 10.2748 18.5372 10.1058L22.5372 8.10579Z" fill="url(#paint17_linear_23_362)"/>
<defs>
<filter id="filter0_f_23_362" x="7.5" y="7.9375" width="7.00024" height="6.99579" filterUnits="userSpaceOnUse" color-interpolation-filters="sRGB">
<feFlood flood-opacity="0" result="BackgroundImageFix"/>
<feBlend mode="normal" in="SourceGraphic" in2="BackgroundImageFix" result="shape"/>
<feGaussianBlur stdDeviation="0.25" result="effect1_foregroundBlur_23_362"/>
</filter>
<filter id="filter1_f_23_362" x="16.9062" y="7.9375" width="7.00024" height="6.99579" filterUnits="userSpaceOnUse" color-interpolation-filters="sRGB">
<feFlood flood-opacity="0" result="BackgroundImageFix"/>
<feBlend mode="normal" in="SourceGraphic" in2="BackgroundImageFix" result="shape"/>
<feGaussianBlur stdDeviation="0.25" result="effect1_foregroundBlur_23_362"/>
</filter>
<radialGradient id="paint0_radial_23_362" cx="0" cy="0" r="1" gradientUnits="userSpaceOnUse" gradientTransform="translate(25.5 9) rotate(132.839) scale(37.5033)">
<stop stop-color="#FFF478"/>
<stop offset="0.474827" stop-color="#FFB02E"/>
<stop offset="1" stop-color="#F70A8D"/>
</radialGradient>
<radialGradient id="paint1_radial_23_362" cx="0" cy="0" r="1" gradientUnits="userSpaceOnUse" gradientTransform="translate(25.5 9) rotate(131.878) scale(38.9487)">
<stop stop-color="#FFF478"/>
<stop offset="0.474827" stop-color="#FFB02E"/>
<stop offset="1" stop-color="#F70A8D"/>
</radialGradient>
<radialGradient id="paint2_radial_23_362" cx="0" cy="0" r="1" gradientUnits="userSpaceOnUse" gradientTransform="translate(16 12.5) rotate(101.31) scale(17.8466 22.8581)">
<stop offset="0.787821" stop-color="#F59639" stop-opacity="0"/>
<stop offset="0.972509" stop-color="#FF7DCE"/>
</radialGradient>
<radialGradient id="paint3_radial_23_362" cx="0" cy="0" r="1" gradientUnits="userSpaceOnUse" gradientTransform="translate(18 14) rotate(135) scale(41.0122)">
<stop offset="0.314853" stop-opacity="0"/>
<stop offset="1"/>
</radialGradient>
<radialGradient id="paint4_radial_23_362" cx="0" cy="0" r="1" gradientUnits="userSpaceOnUse" gradientTransform="translate(16 17) rotate(77.692) scale(28.1469)">
<stop offset="0.507903" stop-color="#7D6133" stop-opacity="0"/>
<stop offset="1" stop-color="#715B32"/>
</radialGradient>
<radialGradient id="paint5_radial_23_362" cx="0" cy="0" r="1" gradientUnits="userSpaceOnUse" gradientTransform="translate(16.5 16.5) rotate(55.7131) scale(13.3135 9.65032)">
<stop stop-color="#FFB849"/>
<stop offset="1" stop-color="#FFB847" stop-opacity="0"/>
</radialGradient>
<radialGradient id="paint6_radial_23_362" cx="0" cy="0" r="1" gradientUnits="userSpaceOnUse" gradientTransform="translate(20.5 18) rotate(9.86581) scale(11.6726)">
<stop stop-color="#FFA64B"/>
<stop offset="0.900412" stop-color="#FFAE46" stop-opacity="0"/>
</radialGradient>
<radialGradient id="paint7_radial_23_362" cx="0" cy="0" r="1" gradientUnits="userSpaceOnUse" gradientTransform="translate(17.5 15) rotate(43.9708) scale(59.0529)">
<stop offset="0.185425" stop-opacity="0"/>
<stop offset="1" stop-opacity="0.4"/>
</radialGradient>
<radialGradient id="paint8_radial_23_362" cx="0" cy="0" r="1" gradientUnits="userSpaceOnUse" gradientTransform="translate(16 28.2222) rotate(-90) scale(12.2222 24.4444)">
<stop stop-color="#F70A8D"/>
<stop offset="1" stop-color="#89029C"/>
</radialGradient>
<linearGradient id="paint9_linear_23_362" x1="16" y1="16" x2="16" y2="17.5" gradientUnits="userSpaceOnUse">
<stop stop-color="#ECCDFF"/>
<stop offset="1" stop-color="white"/>
</linearGradient>
<radialGradient id="paint10_radial_23_362" cx="0" cy="0" r="1" gradientUnits="userSpaceOnUse" gradientTransform="translate(9.78128 8.4375) rotate(110.225) scale(7.59317 9.92428)">
<stop stop-color="#9F5E0F"/>
<stop offset="0.889024" stop-color="#9F5E0F" stop-opacity="0"/>
</radialGradient>
<radialGradient id="paint11_radial_23_362" cx="0" cy="0" r="1" gradientUnits="userSpaceOnUse" gradientTransform="translate(9.78128 8.4375) rotate(110.225) scale(7.59317 9.92428)">
<stop stop-color="#9F5E0F"/>
<stop offset="0.889024" stop-color="#9F5E0F" stop-opacity="0"/>
</radialGradient>
<linearGradient id="paint12_linear_23_362" x1="10.5784" y1="14.7322" x2="8.00003" y2="9.38845" gradientUnits="userSpaceOnUse">
<stop offset="0.24955" stop-color="#482641"/>
<stop offset="0.406361" stop-color="#503A4A"/>
<stop offset="0.511203" stop-color="#482641"/>
</linearGradient>
<linearGradient id="paint13_linear_23_362" x1="8.85962" y1="11.1385" x2="11.2502" y2="6.45102" gradientUnits="userSpaceOnUse">
<stop offset="0.24955" stop-color="#482641"/>
<stop offset="0.406361" stop-color="#503A4A"/>
<stop offset="0.511203" stop-color="#482641"/>
</linearGradient>
<radialGradient id="paint14_radial_23_362" cx="0" cy="0" r="1" gradientUnits="userSpaceOnUse" gradientTransform="translate(26.8281 15.4375) rotate(-135.995) scale(13.3597 17.4611)">
<stop stop-color="#E9830A"/>
<stop offset="0.801655" stop-color="#F08B13" stop-opacity="0"/>
</radialGradient>
<radialGradient id="paint15_radial_23_362" cx="0" cy="0" r="1" gradientUnits="userSpaceOnUse" gradientTransform="translate(26.8281 15.4375) rotate(-135.995) scale(13.3597 17.4611)">
<stop stop-color="#E9830A"/>
<stop offset="0.801655" stop-color="#F08B13" stop-opacity="0"/>
</radialGradient>
<linearGradient id="paint16_linear_23_362" x1="21.4063" y1="14.7322" x2="23.9846" y2="9.38845" gradientUnits="userSpaceOnUse">
<stop offset="0.24955" stop-color="#482641"/>
<stop offset="0.406361" stop-color="#503A4A"/>
<stop offset="0.511203" stop-color="#482641"/>
</linearGradient>
<linearGradient id="paint17_linear_23_362" x1="23.125" y1="11.1385" x2="20.7344" y2="6.45102" gradientUnits="userSpaceOnUse">
<stop offset="0.24955" stop-color="#482641"/>
<stop offset="0.406361" stop-color="#503A4A"/>
<stop offset="0.511203" stop-color="#482641"/>
</linearGradient>
</defs>
</svg>

<svg width="100%" height="100%" viewBox="0 0 32 32" xmlns="http://www.w3.org/2000/svg"><path fill="url(#a)" d="M15.999 29.998c9.334 0 13.999-6.268 13.999-14 0-7.73-4.665-13.998-14-13.998C6.665 2 2 8.268 2 15.999s4.664 13.999 13.999 13.999"/><path fill="url(#b)" d="M15.999 29.998c9.334 0 13.999-6.268 13.999-14 0-7.73-4.665-13.998-14-13.998C6.665 2 2 8.268 2 15.999s4.664 13.999 13.999 13.999"/><path fill="url(#c)" d="M15.999 29.998c9.334 0 13.999-6.268 13.999-14 0-7.73-4.665-13.998-14-13.998C6.665 2 2 8.268 2 15.999s4.664 13.999 13.999 13.999"/><path fill="url(#d)" fill-opacity=".6" d="M15.999 29.998c9.334 0 13.999-6.268 13.999-14 0-7.73-4.665-13.998-14-13.998C6.665 2 2 8.268 2 15.999s4.664 13.999 13.999 13.999"/><path fill="url(#e)" d="M15.999 29.998c9.334 0 13.999-6.268 13.999-14 0-7.73-4.665-13.998-14-13.998C6.665 2 2 8.268 2 15.999s4.664 13.999 13.999 13.999"/><path fill="url(#f)" d="M15.999 29.998c9.334 0 13.999-6.268 13.999-14 0-7.73-4.665-13.998-14-13.998C6.665 2 2 8.268 2 15.999s4.664 13.999 13.999 13.999"/><path fill="url(#g)" d="M15.999 29.998c9.334 0 13.999-6.268 13.999-14 0-7.73-4.665-13.998-14-13.998C6.665 2 2 8.268 2 15.999s4.664 13.999 13.999 13.999"/><path fill="url(#h)" d="M15.999 29.998c9.334 0 13.999-6.268 13.999-14 0-7.73-4.665-13.998-14-13.998C6.665 2 2 8.268 2 15.999s4.664 13.999 13.999 13.999"/><path fill="url(#i)" d="M16 26C6 26 6 16 6 16h20s0 10-10 10"/><path fill="url(#j)" d="M23.5 17.5h-15A1.5 1.5 0 0 1 7 16h18a1.5 1.5 0 0 1-1.5 1.5"/><g fill-opacity=".6" filter="url(#k)"><path fill="url(#l)" d="M9.447 14.328a1 1 0 1 1-.894-1.79l2.206-1.103H14a1 1 0 0 1-.553.893z" style="mix-blend-mode:multiply"/><path fill="url(#m)" d="M9.447 8.543a1 1 0 0 0-.894 1.79l2.206 1.102H14a1 1 0 0 0-.553-.892z" style="mix-blend-mode:multiply"/></g><path fill="url(#n)" d="M9.447 13.89a1 1 0 1 1-.894-1.789l2.206-1.103H14a1 1 0 0 1-.553.892z"/><path fill="url(#o)" d="M9.447 8.106a1 1 0 0 0-.894 1.789l2.206 1.103H14a1 1 0 0 0-.553-.892z"/><g filter="url(#p)"><path fill="url(#q)" d="M21.959 14.328a1 1 0 0 0 .895-1.79l-2.207-1.103h-3.24a1 1 0 0 0 .552.893z"/><path fill="url(#r)" d="M21.959 8.543a1 1 0 0 1 .895 1.79l-2.207 1.102h-3.24a1 1 0 0 1 .552-.892z"/></g><path fill="url(#s)" d="M22.537 13.89a1 1 0 1 0 .895-1.789l-2.207-1.103h-3.24a1 1 0 0 0 .552.892z"/><path fill="url(#t)" d="M22.537 8.106a1 1 0 0 1 .895 1.789l-2.207 1.103h-3.24a1 1 0 0 1 .552-.892z"/><defs><radialGradient id="a" cx="0" cy="0" r="1" gradientTransform="rotate(132.839 10.786 10.065)scale(37.5033)" gradientUnits="userSpaceOnUse"><stop stop-color="#FFF478"/><stop offset=".475" stop-color="#FFB02E"/><stop offset="1" stop-color="#F70A8D"/></radialGradient><radialGradient id="b" cx="0" cy="0" r="1" gradientTransform="rotate(131.878 10.74 10.193)scale(38.9487)" gradientUnits="userSpaceOnUse"><stop stop-color="#FFF478"/><stop offset=".475" stop-color="#FFB02E"/><stop offset="1" stop-color="#F70A8D"/></radialGradient><radialGradient id="c" cx="0" cy="0" r="1" gradientTransform="rotate(101.31 2.876 12.808)scale(17.8466 22.8581)" gradientUnits="userSpaceOnUse"><stop offset=".788" stop-color="#F59639" stop-opacity="0"/><stop offset=".973" stop-color="#FF7DCE"/></radialGradient><radialGradient id="d" cx="0" cy="0" r="1" gradientTransform="matrix(-29 29 -29 -29 18 14)" gradientUnits="userSpaceOnUse"><stop offset=".315" stop-opacity="0"/><stop offset="1"/></radialGradient><radialGradient id="e" cx="0" cy="0" r="1" gradientTransform="rotate(77.692 -2.555 18.434)scale(28.1469)" gradientUnits="userSpaceOnUse"><stop offset=".508" stop-color="#7D6133" stop-opacity="0"/><stop offset="1" stop-color="#715B32"/></radialGradient><radialGradient id="f" cx="0" cy="0" r="1" gradientTransform="rotate(55.713 -7.36 23.86)scale(13.3135 9.65032)" gradientUnits="userSpaceOnUse"><stop stop-color="#FFB849"/><stop offset="1" stop-color="#FFB847" stop-opacity="0"/></radialGradient><radialGradient id="g" cx="0" cy="0" r="1" gradientTransform="matrix(11.49998 2 -2 11.49998 20.5 18)" gradientUnits="userSpaceOnUse"><stop stop-color="#FFA64B"/><stop offset=".9" stop-color="#FFAE46" stop-opacity="0"/></radialGradient><radialGradient id="h" cx="0" cy="0" r="1" gradientTransform="rotate(43.971 -9.827 29.173)scale(59.0529)" gradientUnits="userSpaceOnUse"><stop offset=".185" stop-opacity="0"/><stop offset="1" stop-opacity=".4"/></radialGradient><radialGradient id="i" cx="0" cy="0" r="1" gradientTransform="matrix(0 -12.2222 24.4444 0 16 28.222)" gradientUnits="userSpaceOnUse"><stop stop-color="#F70A8D"/><stop offset="1" stop-color="#89029C"/></radialGradient><radialGradient id="l" cx="0" cy="0" r="1" gradientTransform="matrix(-2.62502 7.125 -9.31237 -3.4309 9.781 8.438)" gradientUnits="userSpaceOnUse"><stop stop-color="#9F5E0F"/><stop offset=".889" stop-color="#9F5E0F" stop-opacity="0"/></radialGradient><radialGradient id="m" cx="0" cy="0" r="1" gradientTransform="matrix(-2.62502 7.125 -9.31237 -3.4309 9.781 8.438)" gradientUnits="userSpaceOnUse"><stop stop-color="#9F5E0F"/><stop offset=".889" stop-color="#9F5E0F" stop-opacity="0"/></radialGradient><radialGradient id="q" cx="0" cy="0" r="1" gradientTransform="rotate(-135.995 16.533 2.298)scale(13.3597 17.4611)" gradientUnits="userSpaceOnUse"><stop stop-color="#E9830A"/><stop offset=".802" stop-color="#F08B13" stop-opacity="0"/></radialGradient><radialGradient id="r" cx="0" cy="0" r="1" gradientTransform="rotate(-135.995 16.533 2.298)scale(13.3597 17.4611)" gradientUnits="userSpaceOnUse"><stop stop-color="#E9830A"/><stop offset=".802" stop-color="#F08B13" stop-opacity="0"/></radialGradient><linearGradient id="j" x1="16" x2="16" y1="16" y2="17.5" gradientUnits="userSpaceOnUse"><stop stop-color="#ECCDFF"/><stop offset="1" stop-color="#fff"/></linearGradient><linearGradient id="n" x1="10.578" x2="8" y1="14.732" y2="9.388" gradientUnits="userSpaceOnUse"><stop offset=".25" stop-color="#482641"/><stop offset=".406" stop-color="#503A4A"/><stop offset=".511" stop-color="#482641"/></linearGradient><linearGradient id="o" x1="8.86" x2="11.25" y1="11.139" y2="6.451" gradientUnits="userSpaceOnUse"><stop offset=".25" stop-color="#482641"/><stop offset=".406" stop-color="#503A4A"/><stop offset=".511" stop-color="#482641"/></linearGradient><linearGradient id="s" x1="21.406" x2="23.985" y1="14.732" y2="9.388" gradientUnits="userSpaceOnUse"><stop offset=".25" stop-color="#482641"/><stop offset=".406" stop-color="#503A4A"/><stop offset=".511" stop-color="#482641"/></linearGradient><linearGradient id="t" x1="23.125" x2="20.734" y1="11.139" y2="6.451" gradientUnits="userSpaceOnUse"><stop offset=".25" stop-color="#482641"/><stop offset=".406" stop-color="#503A4A"/><stop offset=".511" stop-color="#482641"/></linearGradient><filter id="k" width="7" height="6.996" x="7.5" y="7.938" color-interpolation-filters="sRGB" filterUnits="userSpaceOnUse"><feFlood flood-opacity="0" result="BackgroundImageFix"/><feBlend in="SourceGraphic" in2="BackgroundImageFix" result="shape"/><feGaussianBlur result="effect1_foregroundBlur_23_362" stdDeviation=".25"/></filter><filter id="p" width="7" height="6.996" x="16.906" y="7.938" color-interpolation-filters="sRGB" filterUnits="userSpaceOnUse"><feFlood flood-opacity="0" result="BackgroundImageFix"/><feBlend in="SourceGraphic" in2="BackgroundImageFix" result="shape"/><feGaussianBlur result="effect1_foregroundBlur_23_362" stdDeviation=".25"/></filter></defs></svg>
